school/img/country/PR.svg

<svg width="13" height="12" viewBox="0 0 13 12" fill="none" xmlns="http://www.w3.org/2000/svg">
<rect x="0.25" y="0.25" width="12.5" height="11.5" rx="1.75" fill="white" stroke="#F5F5F5" stroke-width="0.5"/>
<mask id="mask0" mask-type="alpha" maskUnits="userSpaceOnUse" x="0" y="0" width="13" height="12">
<rect x="0.25" y="0.25" width="12.5" height="11.5" rx="1.75" fill="white" stroke="white" stroke-width="0.5"/>
</mask>
<g mask="url(#mask0)">
<path fill-rule="evenodd" clip-rule="evenodd" d="M0 0H13V2.4H0V0ZM0 4.8H13V7.2H0V4.8ZM0 9.6V12H13V9.6H0Z" fill="#FA2222"/>
<path fill-rule="evenodd" clip-rule="evenodd" d="M0 0L6.19048 6L0 12V0Z" fill="#1D63F9"/>
<g filter="url(#filter0_d)">
<path fill-rule="evenodd" clip-rule="evenodd" d="M2.16664 6.76445L1.25697 7.61803L1.60405 6.23623L0.694764 5.38197L1.81894 5.38155L2.16664 4L2.51433 5.38155L3.63851 5.38197L2.72922 6.23623L3.07631 7.61803L2.16664 6.76445Z" fill="url(#paint0_linear)"/>
</g>
</g>
<defs>
<filter id="filter0_d" x="0.694824" y="4" width="2.94375" height="4.61803" filterUnits="userSpaceOnUse" color-interpolation-filters="sRGB">
<feFlood flood-opacity="0" result="BackgroundImageFix"/>
<feColorMatrix in="SourceAlpha" type="matrix" values="0 0 0 0 0 0 0 0 0 0 0 0 0 0 0 0 0 0 127 0"/>
<feOffset dy="1"/>
<feColorMatrix type="matrix" values="0 0 0 0 0 0 0 0 0 0 0 0 0 0 0 0 0 0 0.06 0"/>
<feBlend mode="normal" in2="BackgroundImageFix" result="effect1_dropShadow"/>
<feBlend mode="normal" in="SourceGraphic" in2="effect1_dropShadow" result="shape"/>
</filter>
<linearGradient id="paint0_linear" x1="0.619019" y1="4" x2="0.619019" y2="8" gradientUnits="userSpaceOnUse">
<stop stop-color="white"/>
<stop offset="1" stop-color="#F0F0F0"/>
</linearGradient>
</defs>
</svg>

<svg width="13" height="12" fill="none" xmlns="http://www.w3.org/2000/svg"><rect x=".25" y=".25" width="12.5" height="11.5" rx="1.75" fill="#fff" stroke="#F5F5F5" stroke-width=".5"/><mask id="a" maskUnits="userSpaceOnUse" x="0" y="0" width="13" height="12"><rect x=".25" y=".25" width="12.5" height="11.5" rx="1.75" fill="#fff" stroke="#fff" stroke-width=".5"/></mask><g mask="url(#a)"><path fill-rule="evenodd" clip-rule="evenodd" d="M0 0h13v2.4H0V0zm0 4.8h13v2.4H0V4.8zm0 4.8V12h13V9.6H0z" fill="#FA2222"/><path fill-rule="evenodd" clip-rule="evenodd" d="M0 0l6.19 6L0 12V0z" fill="#1D63F9"/><g filter="url(#filter0_d)"><path fill-rule="evenodd" clip-rule="evenodd" d="M2.167 6.764l-.91.854.347-1.382-.91-.854H1.82L2.167 4l.347 1.382H3.64l-.91.854.347 1.382-.91-.854z" fill="url(#paint0_linear)"/></g></g><defs><linearGradient id="paint0_linear" x1=".619" y1="4" x2=".619" y2="8" gradientUnits="userSpaceOnUse"><stop stop-color="#fff"/><stop offset="1" stop-color="#F0F0F0"/></linearGradient><filter id="filter0_d" x=".695" y="4" width="2.944" height="4.618" filterUnits="userSpaceOnUse" color-interpolation-filters="sRGB"><feFlood flood-opacity="0" result="BackgroundImageFix"/><feColorMatrix in="SourceAlpha" values="0 0 0 0 0 0 0 0 0 0 0 0 0 0 0 0 0 0 127 0"/><feOffset dy="1"/><feColorMatrix values="0 0 0 0 0 0 0 0 0 0 0 0 0 0 0 0 0 0 0.06 0"/><feBlend in2="BackgroundImageFix" result="effect1_dropShadow"/><feBlend in="SourceGraphic" in2="effect1_dropShadow" result="shape"/></filter></defs></svg>
